symbols/web/send/materialsymbolsrounded/send_wght200_48px.svg

<svg xmlns="http://www.w3.org/2000/svg" height="48" width="48"><path d="M8 34.9V13.05q0-.7.625-1.1.625-.4 1.325-.15L35.8 22.7q.85.35.85 1.3 0 .95-.85 1.3L9.95 36.15q-.7.3-1.325-.1T8 34.9Zm1.55-.3L34.85 24 9.55 13.3v8.4L19.3 24l-9.75 2.25Zm0-10.6V13.3 34.6Z"/></svg>

<svg xmlns="http://www.w3.org/2000/svg" height="48" width="48"><path d="M8 34.9V13.05Q8 12.35 8.625 11.95Q9.25 11.55 9.95 11.8L35.8 22.7Q36.65 23.05 36.65 24Q36.65 24.95 35.8 25.3L9.95 36.15Q9.25 36.45 8.625 36.05Q8 35.65 8 34.9ZM9.55 34.6 34.85 24 9.55 13.3V21.7L19.3 24L9.55 26.25ZM9.55 24V13.3V21.7Q9.55 21.7 9.55 21.7Q9.55 21.7 9.55 21.7V26.25Q9.55 26.25 9.55 26.25Q9.55 26.25 9.55 26.25V34.6Z"/></svg>
